src/icons/svgs/24/arrow-trend-up.svg

<svg width="24" height="24" viewBox="0 0 24 24" fill="none" xmlns="http://www.w3.org/2000/svg">
<path d="M22 6.825V12.875C22 13.3322 21.6285 13.7 21.1667 13.7C20.7049 13.7 20.3333 13.3322 20.3333 12.875V8.81531L13.7014 15.3809C13.5382 15.5459 13.3229 15.625 13.1111 15.625C13.0017 15.625 12.8933 15.6036 12.7922 15.5622C12.6911 15.5207 12.5993 15.4599 12.5219 15.3833L8.66667 11.5653L3.42361 16.7559C3.25972 16.9209 3.04722 17 2.83333 17C2.18073 17 2 16.4088 2 16.175C1.99988 16.0666 2.02138 15.9593 2.06328 15.8592C2.10517 15.7591 2.16664 15.6682 2.24413 15.5917L8.07747 9.81666C8.23958 9.65406 8.45486 9.575 8.66667 9.575C8.87847 9.575 9.09306 9.65558 9.2559 9.81669L13.1111 13.6347L19.1563 7.65H15.0556C14.5972 7.65 14.2222 7.28219 14.2222 6.825C14.2222 6.36781 14.5972 6 15.0556 6H21.1667C21.6285 6 22 6.37125 22 6.825Z" fill="black"/>
</svg>

<svg width="24" height="24" viewBox="0 0 24 24" xmlns="http://www.w3.org/2000/svg">
    <path d="M22 6.825v6.05a.827.827 0 0 1-.833.825.827.827 0 0 1-.834-.825v-4.06l-6.632 6.566a.827.827 0 0 1-.909.181.835.835 0 0 1-.27-.179l-3.855-3.818-5.243 5.19a.825.825 0 0 1-.59.245C2.18 17 2 16.409 2 16.175a.815.815 0 0 1 .244-.583l5.833-5.775a.838.838 0 0 1 1.178 0l3.856 3.818 6.045-5.985h-4.1a.83.83 0 0 1-.834-.825.83.83 0 0 1 .834-.825h6.11a.83.83 0 0 1 .834.825z"/>
</svg>
